resources/haticons/SVG/repeat_one_on.svg

<!-- Generated by IcoMoon.io -->
<svg version="1.1" xmlns="http://www.w3.org/2000/svg" width="24" height="24" viewBox="0 0 24 24">
<title>repeat_one_on</title>
<path d="M12.984 15v-6h-0.984l-2.016 0.984v1.031h1.5v3.984h1.5zM17.016 17.016h-10.031v-3l-3.984 3.984 3.984 3.984v-3h12v-6h-1.969v4.031zM6.984 6.984h10.031v3l3.984-3.984-3.984-3.984v3h-12v6h1.969v-4.031zM21 0.984q0.797 0 1.406 0.609t0.609 1.406v18q0 0.797-0.609 1.406t-1.406 0.609h-18q-0.797 0-1.406-0.609t-0.609-1.406v-18q0-0.797 0.609-1.406t1.406-0.609h18z"></path>
</svg>

<svg xmlns="http://www.w3.org/2000/svg" width="24" height="24"><path d="M12.984 15V9H12l-2.016.984v1.031h1.5v3.984h1.5zm4.032 2.016H6.985v-3L3.001 18l3.984 3.984v-3h12v-6h-1.969v4.031zM6.984 6.984h10.031v3L20.999 6l-3.984-3.984v3h-12v6h1.969V6.985zM21 .984q.797 0 1.406.609t.609 1.406v18q0 .797-.609 1.406T21 23.014H3q-.797 0-1.406-.609t-.609-1.406v-18q0-.797.609-1.406T3 .984h18z"/></svg>
